X:34
T:Monaltries Reel
C:Robert Petrie
S:Petrie's Collection of Strathspey Reels and Country Dances &c., 1790
Z:Steve Wyrick , 3/19/04
N:Petrie's First Collection, page 16
L:1/8
M:C|
R:Reel
K:F
     C| F2fd   cAFA  |BGAF (EGGC)|  F2Ff  cAFA|BGcA    F/F/F F:|
     c|(Tfefg) agaf  |efgc (egga)|(Tfefg) agaf|egcb   (affc)   |
       (Tfefg) agaf  |efgc  efga |  bgaf  ecfd|c(BTAG) AFF    ||
|:c/B/|  AFCF  AFCF  |AFCF (BGGB)|  AFCF  BGEG|cABG    AFF    :|
%Petrie omitted the repeat sign at the beginning of the above line -SW
|:   c| fcAc (Tfga).g|fcaf e(gga)|1fcAc   fdBd|.c(BAG) AFF    :|2bgaf gefd|cABG AFF|]
